X: 49
T: Black Jack Grove
B: canberra pickers and fiddlers
B: old time tunes update
B: tunes
M:C|
L:1/8
R: reel
Q: 1/4=100
K:Amixolydian
V:1 
|:\
"A"egag e2d2 | cdef "G"g2ef | g2ag e2d2 | cde^g "A"a2e2 |
"A"egag e2d2 | cdef "G"g2ef | g2{^g}a=g e2d2 | "E"edB2 "A"A4 :|
|:\
"A"cBAc B2A2 | "E"GGBG E2AB | "A"cBAc B2A2 | "E"GGBG "A"A2AB |
"A"cBAc B2A2 | "E"GGBG E2ef | g2{^g}a=g e2d2 | "E"edB2 "A"A4 :|
% abcbook-tune_id 67a7d9eccd5739a35e2ac957
% abcbook-tune_composer_id 
% abcbook-link-0 https://www.youtube.com/watch?v=zavWMOuPS9Q
% abcbook-link-title-0 Black Jack Grove
% abcbook-boost 0
% abcbook-difficulty 0
% abcbook-tags old time tunes
% abcbook-tablature 
% abcbook-transpose 
% abcbook-tuning AEAE
% abcbook-lastupdated 1739099927773
% abcbook-src-url 
% abcbook-soundfonts 
% abcbook-repeats 1


